X:1
T:Phantasia D Dur
T:Rondeau A - Dur
T:David Kellner (1670 - 1748)
C:David Kellner
%%score { ( 1 2 ) | ( 3 4 ) }
L:1/8
Q:1/2=60
M:2/2
K:A
V:1 treble-8 nm="Laute" snm="Lt."
V:2 treble-8 
V:3 tab stafflines=6 strings=A1,B1,C2,D2,E2,F2,G2,A2,D3,F3,A3,D4,F4 nostems 
V:4 tab stafflines=6 strings=A1,B1,C2,D2,E2,F2,G2,A2,D3,F3,A3,D4,F4 nostems 
V:1
 e2 | (c'b)(c'b) c'2 g2 | (ag)(ag) a2 e2 | abab (c'b)ab | g2 e2 B2 e2 | (c'b)(c'b) c'2 g2 | %6
 (ag)(ag) a2 e2 | z a(bc') Pb3 a/b/ | a6 :: e2 | c2 A2 z2 e2 | c2 A2 z2 e2 | z2 f2 g2 a2 | %13
 Pg4 e2 g2 | a2 A2 A2 a2 | e2 B2 B2 e2 | z2 c2 PB3 A | A4 z2 e2 | c2 A2 z2 e2 | c2 A2 z2 e2 | %20
 z2 f2 g2 a2 |"^1" Pg4 e2 g2 | a2 A2 A2 a2 | e2 B2 B2 e2 | z2 c2 Pd2 c2 |"^1"{c} B4 z2 e2 | %26
 (c'b)(c'b) c'2 g2 | (ag)(ag) a2 e2 | abab (c'b)ab | g2 e2 B2 e2 | (c'b)(c'b) c'2 g2 | %31
 (ag)(ag) a2 e2 | a2 (bc') b3 a/b/ | a4 z2 :: e2 | B2 G2 z2 e2 | B2 G2 z2 e2 | f2 e2 Pe3 ^d | %38
"^1"{^d} e4 z2 e2 | a2 A2 A2 g2 | f2 A2 A2 f2 | e2 G2 G2 d2 | c2 A2 A2 e2 | B2 G2 z2 e2 | %44
 c2 A2 z2 e2 | B2 G2 z2 e2 | c2 A2 z2 e2 | B2 B2 c2 d2 | z2 e2 f2 B2 | c4 PB3 A | A4 z2 e2 | %51
 (c'b)(c'b) c'2 g2 | (ag)(ag) a2 e2 | abab (c'b)ab | g2 e2 B2 e2 | (c'b)(c'b) c'2 g2 | %56
 (ag)(ag) a2 e2 | z a(bc') Pb3 a/b/ | a6 :| %59
V:2
 z2 | A,6 E,2 | F,6 C,2 | F,4 D,4 | E,8 | A,6 E,2 | F,6 C,2 | F,2 D,2 E,4 | z4 A,2 :: x2 | %10
 x4 A,2 z2 | x4 A,2 z2 | D,8 | E,8 | F,8 | G,8 | A,4 E,4 | A4 A,2 z2 | x4 A,2 z2 | x4 A,2 z2 | %20
 D,8 | E,8 | F,8 | G,8 | A,4 D,4 | G4 E,2 z2 | A,6 E,2 | F,6 C,2 | F,4 D,4 | E,8 | A,6 E,2 | %31
 F,6 C,2 | F,2 D,2 E,4 | z4 A,2 :: x2 | x4 E,2 z2 | x4 E,2 z2 | A,2 G,2 F,4 | z4 E,2 D,2 | C,8 | %40
 D,8 | E,8 | A,8 | z4 E,2 z2 | z4 E,2 z2 | z4 E,2 z2 | z4 E,2 z2 | x4 D,4 | C,2 z2 D,4 | E,8 | %50
 z4 A,2 z2 | A,6 E,2 | A,6 C,2 | F,4 D,4 | E,8 | A,6 E,2 | F,6 C,2 | F,2 D,2 E,4 | z4 A,2 :| %59
V:3
 !3!E2 | (!1!c !1!B) (!1!c !1!B) !1!c2 !2!G2 | (!2!A !2!G) (!2!A !2!G) !2!A2 !3!E2 | %3
 !2!A !1!B !2!A !1!B (!1!c !1!B) !2!A !1!B | !2!G2 !3!E2 !4!B,2 !3!E2 | %5
 (!1!c !1!B) (!1!c !1!B) !1!c2 !2!G2 | (!2!A !2!G) (!2!A !2!G) !2!A2 !3!E2 | %7
 x !2!A (!1!B !1!c) P!1!B3 !2!A/ !1!B/ | !2!A6 :: !2!E2 | !3!C2 !4!A,2 x2 !2!E2 | %11
 !3!C2 !4!A,2 x2 !2!E2 | x2 !2!F2 !1!G2 !1!A2 | P!1!G4 !2!E2 !1!G2 | !1!A2 !3!A,2 !3!A,2 !1!A2 | %15
 !2!E2 !3!B,2 !3!B,2 !2!E2 | x2 !3!C2 P!3!B,3 !3!A, | !3!A,4 x2 !2!E2 | !3!C2 !4!A,2 x2 !2!E2 | %19
 !3!C2 !4!A,2 x2 !2!E2 | x2 !2!F2 !1!G2 !1!A2 | P!1!G4 !2!E2 !1!G2 | !1!A2 !3!A,2 !3!A,2 !1!A2 | %23
 !2!E2 !3!B,2 !3!B,2 !2!E2 | x2 !3!C2 P!2!D2 !3!C2 |{!3!C} !3!B,4 x2 !3!E2 | %26
 (!1!c !1!B) (!1!c !1!B) !1!c2 !2!G2 | (!2!A !2!G) (!2!A !2!G) !2!A2 !3!E2 | %28
 !2!A !1!B !2!A !1!B (!1!c !1!B) !2!A !1!B | !2!G2 !3!E2 !4!B,2 !3!E2 | %30
 (!1!c !1!B) (!1!c !1!B) !1!c2 !2!G2 | (!2!A !2!G) (!2!A !2!G) !2!A2 !3!E2 | %32
 !2!A2 (!1!B !1!c) !1!B3 !2!A/ !1!B/ | !2!A4 x2 :: !2!E2 | !3!B,2 !4!G,2 x2 !2!E2 | %36
 !3!B,2 !4!G,2 x2 !2!E2 | !2!F2 !2!E2 P!2!E3 !2!^D |{!2!^D} !2!E4 x2 !2!E2 | %39
 !1!A2 !3!A,2 !3!A,2 !1!G2 | !2!F2 !3!A,2 !3!A,2 !2!F2 | !2!E2 !4!G,2 !4!G,2 !2!D2 | %42
 !3!C2 !4!A,2 !4!A,2 !2!E2 | !3!B,2 !4!G,2 x2 !2!E2 | !3!C2 !4!A,2 x2 !2!E2 | %45
 !3!B,2 !4!G,2 x2 !2!E2 | !3!C2 !4!A,2 x2 !2!E2 | !3!B,2 !3!B,2 !3!C2 !2!D2 | %48
 x2 !2!E2 !2!F2 !3!B,2 | !3!C4 P!3!B,3 !3!A, | !3!A,4 x2 !3!E2 | %51
 (!1!c !1!B) (!1!c !1!B) !1!c2 !2!G2 | (!2!A !2!G) (!2!A !2!G) !2!A2 !3!E2 | %53
 !2!A !1!B !2!A !1!B (!1!c !1!B) !2!A !1!B | !2!G2 !3!E2 !4!B,2 !3!E2 | %55
 (!1!c !1!B) (!1!c !1!B) !1!c2 !2!G2 | (!2!A !2!G) (!2!A !2!G) !2!A2 !3!E2 | %57
 x !2!A (!1!B !1!c) P!1!B3 !2!A/ !1!B/ | %58
"_source: David Kellners XVI auserlesene Lautenstücke, Hamburg 1747\nThis rondeau is concordant in: D-Mbs5362 / 58v\n\n1.: according to MS Munich 5362" !2!A6 :| %59
V:4
 x2 | !6!A,,6 !9!E,,2 | !8!F,,6 !11!C,,2 | !8!F,,4 !10!D,,4 | !9!E,,8 | !6!A,,6 !9!E,,2 | %6
 !8!F,,6 !11!C,,2 | !8!F,,2 !10!D,,2 !9!E,,4 | x4 !6!A,,2 :: x2 | x4 !6!A,,2 x2 | x4 !6!A,,2 x2 | %12
 !10!D,,8 | !9!E,,8 | !8!F,,8 | !7!G,,8 | !6!A,,4 !9!E,,4 | !4!A,4 !6!A,,2 x2 | x4 !6!A,,2 x2 | %19
 x4 !6!A,,2 x2 | !10!D,,8 | !9!E,,8 | !8!F,,8 | !7!G,,8 | !6!A,,4 !10!D,,4 | !4!G,4 !9!E,,2 x2 | %26
 !6!A,,6 !9!E,,2 | !8!F,,6 !11!C,,2 | !8!F,,4 !10!D,,4 | !9!E,,8 | !6!A,,6 !9!E,,2 | %31
 !8!F,,6 !11!C,,2 | !8!F,,2 !10!D,,2 !9!E,,4 | x4 !6!A,,2 :: x2 | x4 !9!E,,2 x2 | x4 !9!E,,2 x2 | %37
 !6!A,,2 !7!G,,2 !8!F,,4 | x4 !9!E,,2 !10!D,,2 | !11!C,,8 | !10!D,,8 | !9!E,,8 | !6!A,,8 | %43
 x4 !9!E,,2 x2 | x4 !9!E,,2 x2 | x4 !9!E,,2 x2 | x4 !9!E,,2 x2 | x4 !10!D,,4 | %48
 !11!C,,2 x2 !10!D,,4 | !9!E,,8 | x4 !6!A,,2 x2 | !6!A,,6 !9!E,,2 | !6!A,,6 !11!C,,2 | %53
 !8!F,,4 !10!D,,4 | !9!E,,8 | !6!A,,6 !9!E,,2 | !8!F,,6 !11!C,,2 | !8!F,,2 !10!D,,2 !9!E,,4 | %58
 x4 !6!A,,2 :| %59

